packages/sources/icons/src/vitamix/visa-line.svg

<svg width="16" height="16" viewBox="0 0 16 16" fill="none" xmlns="http://www.w3.org/2000/svg">
<path fill-rule="evenodd" clip-rule="evenodd" d="M11.6681 5.64333C11.3894 5.53333 10.9047 5.41333 10.5201 5.41333H10.5207C9.20939 5.41333 8.28605 6.06733 8.27472 7.042C8.26545 7.7983 8.95221 8.17763 9.44752 8.45122L9.45739 8.45667C9.95339 8.73 10.0894 8.84 10.0867 9.06133C10.0834 9.37267 9.70405 9.55133 9.26205 9.55133C8.77939 9.55133 8.54005 9.476 7.97539 9.23933L7.74072 10.3227C8.29539 10.5193 8.54072 10.5767 9.22072 10.5867C10.7114 10.5867 11.4181 9.76067 11.4267 8.92333C11.4347 8.52 11.3507 8.14867 10.7114 7.73533C10.5511 7.63154 10.3921 7.54374 10.2469 7.4635C9.88456 7.2634 9.60739 7.11031 9.60739 6.87333C9.60739 6.66933 9.92072 6.45667 10.4274 6.448C10.7761 6.44333 11.1907 6.58 11.4427 6.68133L11.6681 5.64333ZM6.05733 5.506L4.70667 5.50467L3.35267 8.894L3.22298 8.20337C3.01288 7.08454 2.8786 6.36942 2.81933 6.058C2.74933 5.68734 2.53133 5.50667 2.158 5.50667H0V5.64334C0.528 5.80667 0.904667 5.92667 1.13067 6.00467C1.38467 6.092 1.51667 6.27667 1.58333 6.54067C1.91861 7.86532 2.25817 9.18888 2.602 10.5113L3.96933 10.5127L6.05733 5.506ZM14.8147 10.512L14.6647 9.762H12.9887L12.722 10.5067L11.3787 10.5093C12.0182 8.97143 12.6591 7.43409 13.3014 5.89733C13.4107 5.63667 13.6047 5.504 13.8907 5.50533C14.1094 5.50733 14.466 5.50733 14.9614 5.506L16 10.51L14.8147 10.512ZM13.3661 8.73467H14.4461L14.0427 6.85467L13.3661 8.73467ZM7.91339 5.506L6.84539 10.5113L5.56005 10.51L6.62672 5.50467L7.91339 5.506Z" fill="#001018"/>
</svg>

<svg width="16" height="16" fill="none" xmlns="http://www.w3.org/2000/svg"><path fill-rule="evenodd" clip-rule="evenodd" d="M11.668 5.643a3.566 3.566 0 0 0-1.148-.23c-1.31 0-2.234.654-2.245 1.629-.01.756.677 1.136 1.173 1.41l.01.005c.495.273.631.383.629.604-.004.312-.383.49-.825.49-.483 0-.722-.075-1.287-.312l-.234 1.084c.554.196.8.254 1.48.264 1.49 0 2.197-.826 2.206-1.664.008-.403-.076-.774-.716-1.188-.16-.103-.319-.191-.464-.272-.362-.2-.64-.353-.64-.59 0-.204.314-.416.82-.425.35-.005.764.132 1.016.233l.225-1.038zm-5.61-.137-1.351-.001-1.354 3.389-.13-.69c-.21-1.12-.344-1.835-.404-2.146-.07-.37-.288-.551-.661-.551H0v.136c.528.164.905.284 1.13.362.255.087.387.272.453.536.336 1.324.675 2.648 1.019 3.97l1.367.002 2.088-5.007zm8.757 5.006-.15-.75h-1.676l-.267.745-1.343.002c.64-1.538 1.28-3.075 1.922-4.612.11-.26.304-.393.59-.392.218.002.575.002 1.07.001L16 10.51l-1.185.002zm-1.449-1.777h1.08l-.403-1.88-.677 1.88zM7.913 5.506l-1.068 5.005-1.285-.001 1.067-5.005 1.286.001z" fill="#001018"/></svg>
